.config/argyll/ixh.cal
CAL    

DESCRIPTOR "Argyll Device Calibration Curves"
ORIGINATOR "Argyll dispcal"
CREATED "Sat Nov 24 14:30:34 2012"
KEYWORD "DEVICE_CLASS"
DEVICE_CLASS "DISPLAY"
KEYWORD "COLOR_REP"
COLOR_REP "RGB"
KEYWORD "VIDEO_LUT_CALIBRATION_POSSIBLE"
VIDEO_LUT_CALIBRATION_POSSIBLE "YES"
KEYWORD "DEVICE_TYPE"
DEVICE_TYPE "l"
KEYWORD "NATIVE_TARGET_WHITE"
NATIVE_TARGET_WHITE ""
KEYWORD "TARGET_WHITE_XYZ"
TARGET_WHITE_XYZ "219.555320 233.374406 277.173809"
KEYWORD "TARGET_GAMMA"
TARGET_GAMMA "2.400000"
KEYWORD "DEGREE_OF_BLACK_OUTPUT_OFFSET"
DEGREE_OF_BLACK_OUTPUT_OFFSET "1.000000"
KEYWORD "BLACK_POINT_CORRECTION"
BLACK_POINT_CORRECTION "0.000000"
KEYWORD "BLACK_NEUTRAL_BLEND_RATE"
BLACK_NEUTRAL_BLEND_RATE "4.000000"
KEYWORD "QUALITY"
QUALITY "medium"

KEYWORD "RGB_I"
NUMBER_OF_FIELDS 4
BEGIN_DATA_FORMAT
RGB_I RGB_R RGB_G RGB_B 
END_DATA_FORMAT

NUMBER_OF_SETS 256
BEGIN_DATA
0.0000 0.0000 5.2809e-03 0.0000 
3.9216e-03 1.7262e-03 6.8683e-03 0.0000 
7.8431e-03 3.5730e-03 8.4864e-03 0.0000 
0.011765 5.4651e-03 0.010136 0.0000 
0.015686 7.4044e-03 0.011819 0.0000 
0.019608 9.3927e-03 0.013535 0.0000 
0.023529 0.011432 0.015285 1.5081e-04 
0.027451 0.013524 0.017072 1.4928e-03 
0.031373 0.015670 0.018895 2.8627e-03 
0.035294 0.017874 0.020755 4.2613e-03 
0.039216 0.020137 0.022655 5.6896e-03 
0.043137 0.022462 0.024596 7.1484e-03 
0.047059 0.024851 0.026578 8.6389e-03 
0.050980 0.027307 0.028603 0.010162 
0.054902 0.029833 0.030672 0.011719 
0.058824 0.032432 0.032787 0.013310 
0.062745 0.035108 0.034950 0.014938 
0.066667 0.037864 0.037162 0.016603 
0.070588 0.040708 0.039424 0.018307 
0.074510 0.043646 0.041740 0.020050 
0.078431 0.046685 0.044110 0.021835 
0.082353 0.049825 0.046539 0.023662 
0.086275 0.053072 0.049030 0.025534 
0.090196 0.056431 0.051585 0.027452 
0.094118 0.059903 0.054206 0.029418 
0.098039 0.063484 0.056894 0.031430 
0.10196 0.067171 0.059649 0.033491 
0.10588 0.070957 0.062476 0.035602 
0.10980 0.074837 0.065376 0.037766 
0.11373 0.078805 0.068350 0.039979 
0.11765 0.082848 0.071396 0.042243 
0.12157 0.086957 0.074513 0.044555 
0.12549 0.091120 0.077696 0.046914 
0.12941 0.095333 0.080946 0.049321 
0.13333 0.099572 0.084262 0.051771 
0.13725 0.10383 0.087640 0.054264 
0.14118 0.10811 0.091076 0.056800 
0.14510 0.11241 0.094564 0.059375 
0.14902 0.11672 0.098106 0.061988 
0.15294 0.12102 0.10170 0.064637 
0.15686 0.12535 0.10533 0.067324 
0.16078 0.12969 0.10902 0.070049 
0.16471 0.13405 0.11274 0.072806 
0.16863 0.13844 0.11649 0.075583 
0.17255 0.14283 0.12028 0.078377 
0.17647 0.14725 0.12409 0.081188 
0.18039 0.15167 0.12794 0.084025 
0.18431 0.15607 0.13183 0.086885 
0.18824 0.16044 0.13575 0.089757 
0.19216 0.16480 0.13970 0.092644 
0.19608 0.16915 0.14369 0.095550 
0.20000 0.17349 0.14771 0.098472 
0.20392 0.17782 0.15176 0.10140 
0.20784 0.18212 0.15582 0.10434 
0.21176 0.18643 0.15989 0.10729 
0.21569 0.19076 0.16396 0.11025 
0.21961 0.19511 0.16804 0.11324 
0.22353 0.19948 0.17213 0.11623 
0.22745 0.20387 0.17623 0.11925 
0.23137 0.20826 0.18033 0.12229 
0.23529 0.21263 0.18441 0.12533 
0.23922 0.21696 0.18848 0.12837 
0.24314 0.22125 0.19256 0.13140 
0.24706 0.22553 0.19664 0.13443 
0.25098 0.22982 0.20071 0.13745 
0.25490 0.23411 0.20480 0.14048 
0.25882 0.23837 0.20890 0.14352 
0.26275 0.24263 0.21300 0.14654 
0.26667 0.24690 0.21711 0.14957 
0.27059 0.25117 0.22120 0.15263 
0.27451 0.25545 0.22529 0.15570 
0.27843 0.25973 0.22936 0.15879 
0.28235 0.26399 0.23344 0.16190 
0.28627 0.26824 0.23752 0.16502 
0.29020 0.27250 0.24160 0.16812 
0.29412 0.27677 0.24566 0.17120 
0.29804 0.28103 0.24972 0.17428 
0.30196 0.28528 0.25376 0.17734 
0.30588 0.28955 0.25782 0.18041 
0.30980 0.29386 0.26186 0.18348 
0.31373 0.29819 0.26589 0.18655 
0.31765 0.30253 0.26989 0.18962 
0.32157 0.30689 0.27389 0.19269 
0.32549 0.31127 0.27788 0.19577 
0.32941 0.31567 0.28187 0.19887 
0.33333 0.32009 0.28585 0.20198 
0.33725 0.32449 0.28983 0.20510 
0.34118 0.32887 0.29382 0.20821 
0.34510 0.33323 0.29783 0.21133 
0.34902 0.33759 0.30187 0.21446 
0.35294 0.34192 0.30593 0.21757 
0.35686 0.34620 0.31000 0.22069 
0.36078 0.35042 0.31407 0.22381 
0.36471 0.35459 0.31815 0.22694 
0.36863 0.35871 0.32223 0.23006 
0.37255 0.36278 0.32630 0.23317 
0.37647 0.36683 0.33036 0.23626 
0.38039 0.37090 0.33441 0.23931 
0.38431 0.37499 0.33847 0.24233 
0.38824 0.37911 0.34253 0.24533 
0.39216 0.38324 0.34658 0.24833 
0.39608 0.38737 0.35062 0.25132 
0.40000 0.39148 0.35463 0.25431 
0.40392 0.39557 0.35862 0.25732 
0.40784 0.39963 0.36260 0.26036 
0.41176 0.40372 0.36656 0.26342 
0.41569 0.40786 0.37051 0.26652 
0.41961 0.41203 0.37446 0.26964 
0.42353 0.41623 0.37843 0.27277 
0.42745 0.42043 0.38240 0.27589 
0.43137 0.42462 0.38637 0.27901 
0.43529 0.42880 0.39034 0.28212 
0.43922 0.43297 0.39429 0.28526 
0.44314 0.43711 0.39822 0.28841 
0.44706 0.44122 0.40214 0.29159 
0.45098 0.44529 0.40606 0.29478 
0.45490 0.44937 0.41003 0.29800 
0.45882 0.45345 0.41404 0.30121 
0.46275 0.45754 0.41809 0.30443 
0.46667 0.46162 0.42217 0.30768 
0.47059 0.46568 0.42627 0.31095 
0.47451 0.46973 0.43039 0.31423 
0.47843 0.47375 0.43451 0.31752 
0.48235 0.47776 0.43863 0.32082 
0.48627 0.48176 0.44273 0.32412 
0.49020 0.48575 0.44681 0.32743 
0.49412 0.48971 0.45089 0.33073 
0.49804 0.49366 0.45497 0.33403 
0.50196 0.49759 0.45905 0.33734 
0.50588 0.50152 0.46311 0.34065 
0.50980 0.50545 0.46716 0.34396 
0.51373 0.50938 0.47120 0.34727 
0.51765 0.51330 0.47522 0.35059 
0.52157 0.51721 0.47922 0.35392 
0.52549 0.52111 0.48320 0.35726 
0.52941 0.52500 0.48717 0.36061 
0.53333 0.52889 0.49113 0.36399 
0.53725 0.53277 0.49507 0.36741 
0.54118 0.53664 0.49899 0.37085 
0.54510 0.54050 0.50290 0.37430 
0.54902 0.54433 0.50682 0.37775 
0.55294 0.54814 0.51075 0.38122 
0.55686 0.55198 0.51468 0.38469 
0.56078 0.55583 0.51860 0.38813 
0.56471 0.55968 0.52251 0.39154 
0.56863 0.56352 0.52642 0.39490 
0.57255 0.56734 0.53032 0.39823 
0.57647 0.57115 0.53421 0.40156 
0.58039 0.57497 0.53809 0.40487 
0.58431 0.57882 0.54196 0.40819 
0.58824 0.58270 0.54582 0.41150 
0.59216 0.58661 0.54968 0.41483 
0.59608 0.59055 0.55355 0.41816 
0.60000 0.59452 0.55742 0.42150 
0.60392 0.59852 0.56129 0.42484 
0.60784 0.60253 0.56515 0.42819 
0.61176 0.60652 0.56901 0.43154 
0.61569 0.61051 0.57286 0.43491 
0.61961 0.61448 0.57670 0.43829 
0.62353 0.61842 0.58057 0.44168 
0.62745 0.62235 0.58446 0.44510 
0.63137 0.62627 0.58838 0.44853 
0.63529 0.63019 0.59231 0.45199 
0.63922 0.63408 0.59625 0.45543 
0.64314 0.63796 0.60021 0.45887 
0.64706 0.64180 0.60418 0.46231 
0.65098 0.64561 0.60816 0.46577 
0.65490 0.64936 0.61213 0.46923 
0.65882 0.65306 0.61611 0.47269 
0.66275 0.65669 0.62010 0.47616 
0.66667 0.66027 0.62408 0.47964 
0.67059 0.66379 0.62807 0.48313 
0.67451 0.66727 0.63205 0.48662 
0.67843 0.67073 0.63603 0.49012 
0.68235 0.67423 0.63999 0.49363 
0.68627 0.67777 0.64393 0.49713 
0.69020 0.68134 0.64785 0.50063 
0.69412 0.68495 0.65173 0.50411 
0.69804 0.68858 0.65559 0.50758 
0.70196 0.69224 0.65940 0.51104 
0.70588 0.69592 0.66318 0.51449 
0.70980 0.69961 0.66692 0.51793 
0.71373 0.70330 0.67068 0.52135 
0.71765 0.70700 0.67448 0.52479 
0.72157 0.71071 0.67834 0.52827 
0.72549 0.71445 0.68226 0.53178 
0.72941 0.71818 0.68623 0.53532 
0.73333 0.72192 0.69027 0.53888 
0.73725 0.72564 0.69437 0.54245 
0.74118 0.72936 0.69851 0.54602 
0.74510 0.73312 0.70271 0.54961 
0.74902 0.73691 0.70695 0.55322 
0.75294 0.74072 0.71122 0.55687 
0.75686 0.74456 0.71555 0.56055 
0.76078 0.74841 0.71992 0.56426 
0.76471 0.75230 0.72430 0.56797 
0.76863 0.75620 0.72870 0.57171 
0.77255 0.76012 0.73313 0.57549 
0.77647 0.76405 0.73758 0.57931 
0.78039 0.76798 0.74205 0.58318 
0.78431 0.77189 0.74652 0.58708 
0.78824 0.77580 0.75099 0.59103 
0.79216 0.77968 0.75546 0.59502 
0.79608 0.78352 0.75991 0.59905 
0.80000 0.78731 0.76433 0.60314 
0.80392 0.79105 0.76874 0.60726 
0.80784 0.79474 0.77312 0.61142 
0.81176 0.79838 0.77748 0.61561 
0.81569 0.80198 0.78182 0.61987 
0.81961 0.80556 0.78614 0.62417 
0.82353 0.80916 0.79043 0.62849 
0.82745 0.81277 0.79470 0.63284 
0.83137 0.81641 0.79896 0.63721 
0.83529 0.82006 0.80322 0.64156 
0.83922 0.82372 0.80754 0.64588 
0.84314 0.82739 0.81193 0.65019 
0.84706 0.83109 0.81638 0.65445 
0.85098 0.83481 0.82090 0.65866 
0.85490 0.83856 0.82546 0.66282 
0.85882 0.84233 0.83006 0.66693 
0.86275 0.84613 0.83471 0.67107 
0.86667 0.84995 0.83939 0.67527 
0.87059 0.85376 0.84407 0.67957 
0.87451 0.85757 0.84875 0.68401 
0.87843 0.86139 0.85343 0.68859 
0.88235 0.86523 0.85808 0.69329 
0.88627 0.86909 0.86274 0.69810 
0.89020 0.87296 0.86744 0.70303 
0.89412 0.87682 0.87215 0.70808 
0.89804 0.88067 0.87686 0.71324 
0.90196 0.88450 0.88157 0.71853 
0.90588 0.88831 0.88626 0.72394 
0.90980 0.89209 0.89094 0.72942 
0.91373 0.89589 0.89562 0.73502 
0.91765 0.89972 0.90032 0.74072 
0.92157 0.90357 0.90502 0.74647 
0.92549 0.90745 0.90972 0.75229 
0.92941 0.91138 0.91442 0.75833 
0.93333 0.91540 0.91914 0.76462 
0.93725 0.91953 0.92385 0.77129 
0.94118 0.92375 0.92855 0.77850 
0.94510 0.92808 0.93326 0.78646 
0.94902 0.93252 0.93797 0.79543 
0.95294 0.93708 0.94270 0.80580 
0.95686 0.94177 0.94745 0.81792 
0.96078 0.94661 0.95220 0.83143 
0.96471 0.95158 0.95696 0.84565 
0.96863 0.95667 0.96171 0.86011 
0.97255 0.96183 0.96647 0.87514 
0.97647 0.96706 0.97124 0.89090 
0.98039 0.97236 0.97601 0.90722 
0.98431 0.97774 0.98080 0.92381 
0.98824 0.98319 0.98559 0.94127 
0.99216 0.98871 0.99038 0.95987 
0.99608 0.99432 0.99519 0.97951 
1.0000 1.0000 1.0000 1.00000 
END_DATA
CAL    

DESCRIPTOR "Argyll Calibration options and model"
ORIGINATOR "Argyll dispcal"
CREATED "Sat Nov 24 14:30:34 201"

KEYWORD "R_P"
KEYWORD "G_P"
KEYWORD "B_P"
NUMBER_OF_FIELDS 3
BEGIN_DATA_FORMAT
R_P G_P B_P 
END_DATA_FORMAT

NUMBER_OF_SETS 32
BEGIN_DATA
1.6880e-03 1.2119e-03 6.0246e-03 
0.99831 0.99879 0.99398 
1.3412 1.3540 0.37583 
0.72197 0.68265 0.98214 
0.20211 0.17230 0.15444 
0.20916 0.18426 0.20903 
0.077323 0.059910 0.091014 
0.097612 0.058873 0.037127 
0.074477 0.041143 0.046634 
0.071578 0.034446 0.031387 
0.048153 0.031944 0.037142 
0.043221 0.023104 0.032255 
0.029537 0.039392 0.036550 
0.025302 0.019489 0.028286 
0.020854 0.028019 0.032803 
0.018637 0.021501 0.022844 
0.017114 0.018615 0.024218 
0.015938 0.022299 0.018712 
0.018282 0.053006 0.020922 
0.014263 2.9091e-03 0.019019 
0.016385 0.027156 0.021900 
0.013291 0.018861 0.020789 
0.015624 0.028488 0.023136 
9.3545e-03 5.5659e-03 0.023312 
0.016161 0.033295 0.023402 
9.9517e-03 0.016581 0.023967 
0.011407 0.024329 0.025030 
0.011433 0.022827 0.025798 
0.012609 0.020401 0.027003 
9.4614e-03 0.017250 0.027602 
9.6152e-03 0.026147 0.026817 
0.014512 0.032442 0.030074 
END_DATA
