.local/lib/argyll/asus_vh232t.cal
CAL    

DESCRIPTOR "Argyll Device Calibration Curves"
ORIGINATOR "Argyll dispcal"
CREATED "Sat Nov 24 13:04:45 2012"
KEYWORD "DEVICE_CLASS"
DEVICE_CLASS "DISPLAY"
KEYWORD "COLOR_REP"
COLOR_REP "RGB"
KEYWORD "VIDEO_LUT_CALIBRATION_POSSIBLE"
VIDEO_LUT_CALIBRATION_POSSIBLE "YES"
KEYWORD "DEVICE_TYPE"
DEVICE_TYPE "l"
KEYWORD "NATIVE_TARGET_WHITE"
NATIVE_TARGET_WHITE ""
KEYWORD "TARGET_WHITE_XYZ"
TARGET_WHITE_XYZ "206.490739 222.582290 211.589865"
KEYWORD "TARGET_GAMMA"
TARGET_GAMMA "2.400000"
KEYWORD "DEGREE_OF_BLACK_OUTPUT_OFFSET"
DEGREE_OF_BLACK_OUTPUT_OFFSET "1.000000"
KEYWORD "BLACK_POINT_CORRECTION"
BLACK_POINT_CORRECTION "0.171928"
KEYWORD "BLACK_NEUTRAL_BLEND_RATE"
BLACK_NEUTRAL_BLEND_RATE "4.000000"
KEYWORD "QUALITY"
QUALITY "medium"

KEYWORD "RGB_I"
NUMBER_OF_FIELDS 4
BEGIN_DATA_FORMAT
RGB_I RGB_R RGB_G RGB_B 
END_DATA_FORMAT

NUMBER_OF_SETS 256
BEGIN_DATA
0.0000 5.6385e-03 1.9436e-03 0.0000 
3.9216e-03 7.4993e-03 3.8858e-03 0.0000 
7.8431e-03 9.3985e-03 5.8639e-03 0.0000 
0.011765 0.011337 7.8791e-03 7.1555e-04 
0.015686 0.013317 9.9324e-03 2.8323e-03 
0.019608 0.015338 0.012025 4.9990e-03 
0.023529 0.017403 0.014158 7.2174e-03 
0.027451 0.019513 0.016332 9.4895e-03 
0.031373 0.021669 0.018549 0.011817 
0.035294 0.023873 0.020810 0.014202 
0.039216 0.026127 0.023116 0.016647 
0.043137 0.028432 0.025469 0.019155 
0.047059 0.030789 0.027870 0.021726 
0.050980 0.033202 0.030321 0.024365 
0.054902 0.035671 0.032823 0.027073 
0.058824 0.038199 0.035377 0.029855 
0.062745 0.040786 0.037986 0.032710 
0.066667 0.043430 0.040648 0.035640 
0.070588 0.046136 0.043367 0.038643 
0.074510 0.048902 0.046141 0.041720 
0.078431 0.051725 0.048974 0.044868 
0.082353 0.054607 0.051864 0.048079 
0.086275 0.057546 0.054808 0.051346 
0.090196 0.060532 0.057806 0.054664 
0.094118 0.063565 0.060853 0.058037 
0.098039 0.066638 0.063944 0.061456 
0.10196 0.069742 0.067075 0.064913 
0.10588 0.072877 0.070246 0.068418 
0.10980 0.076037 0.073448 0.071951 
0.11373 0.079223 0.076685 0.075507 
0.11765 0.082438 0.079966 0.079063 
0.12157 0.085673 0.083269 0.082630 
0.12549 0.088920 0.086589 0.086212 
0.12941 0.092183 0.089915 0.089803 
0.13333 0.095456 0.093249 0.093389 
0.13725 0.098738 0.096589 0.096981 
0.14118 0.10204 0.099929 0.10058 
0.14510 0.10535 0.10327 0.10420 
0.14902 0.10868 0.10661 0.10785 
0.15294 0.11200 0.10994 0.11151 
0.15686 0.11531 0.11325 0.11516 
0.16078 0.11861 0.11655 0.11881 
0.16471 0.12192 0.11986 0.12245 
0.16863 0.12525 0.12318 0.12607 
0.17255 0.12862 0.12650 0.12967 
0.17647 0.13201 0.12983 0.13324 
0.18039 0.13541 0.13315 0.13676 
0.18431 0.13882 0.13646 0.14025 
0.18824 0.14224 0.13977 0.14372 
0.19216 0.14570 0.14307 0.14719 
0.19608 0.14919 0.14636 0.15067 
0.20000 0.15270 0.14965 0.15418 
0.20392 0.15621 0.15292 0.15772 
0.20784 0.15973 0.15619 0.16127 
0.21176 0.16325 0.15947 0.16482 
0.21569 0.16677 0.16276 0.16837 
0.21961 0.17032 0.16608 0.17187 
0.22353 0.17389 0.16943 0.17532 
0.22745 0.17749 0.17278 0.17875 
0.23137 0.18109 0.17612 0.18216 
0.23529 0.18469 0.17946 0.18556 
0.23922 0.18827 0.18279 0.18893 
0.24314 0.19185 0.18612 0.19228 
0.24706 0.19543 0.18945 0.19560 
0.25098 0.19899 0.19278 0.19890 
0.25490 0.20256 0.19610 0.20219 
0.25882 0.20613 0.19943 0.20546 
0.26275 0.20971 0.20277 0.20871 
0.26667 0.21330 0.20612 0.21195 
0.27059 0.21689 0.20947 0.21516 
0.27451 0.22048 0.21281 0.21835 
0.27843 0.22407 0.21615 0.22152 
0.28235 0.22766 0.21950 0.22470 
0.28627 0.23126 0.22285 0.22787 
0.29020 0.23484 0.22621 0.23102 
0.29412 0.23841 0.22959 0.23414 
0.29804 0.24193 0.23299 0.23723 
0.30196 0.24543 0.23638 0.24027 
0.30588 0.24891 0.23975 0.24325 
0.30980 0.25237 0.24310 0.24620 
0.31373 0.25582 0.24643 0.24913 
0.31765 0.25926 0.24976 0.25208 
0.32157 0.26268 0.25308 0.25506 
0.32549 0.26612 0.25640 0.25808 
0.32941 0.26957 0.25973 0.26113 
0.33333 0.27304 0.26307 0.26418 
0.33725 0.27657 0.26645 0.26723 
0.34118 0.28017 0.26987 0.27028 
0.34510 0.28384 0.27335 0.27333 
0.34902 0.28759 0.27690 0.27635 
0.35294 0.29140 0.28049 0.27937 
0.35686 0.29525 0.28411 0.28238 
0.36078 0.29914 0.28775 0.28539 
0.36471 0.30305 0.29139 0.28840 
0.36863 0.30697 0.29504 0.29141 
0.37255 0.31088 0.29871 0.29442 
0.37647 0.31478 0.30238 0.29743 
0.38039 0.31868 0.30607 0.30046 
0.38431 0.32258 0.30974 0.30351 
0.38824 0.32647 0.31342 0.30658 
0.39216 0.33037 0.31713 0.30970 
0.39608 0.33429 0.32085 0.31283 
0.40000 0.33817 0.32458 0.31600 
0.40392 0.34202 0.32833 0.31919 
0.40784 0.34586 0.33206 0.32242 
0.41176 0.34970 0.33575 0.32565 
0.41569 0.35353 0.33941 0.32887 
0.41961 0.35736 0.34306 0.33208 
0.42353 0.36119 0.34671 0.33529 
0.42745 0.36502 0.35034 0.33851 
0.43137 0.36884 0.35396 0.34173 
0.43529 0.37266 0.35756 0.34496 
0.43922 0.37646 0.36116 0.34819 
0.44314 0.38025 0.36477 0.35143 
0.44706 0.38399 0.36839 0.35467 
0.45098 0.38769 0.37201 0.35789 
0.45490 0.39131 0.37566 0.36109 
0.45882 0.39484 0.37930 0.36430 
0.46275 0.39828 0.38295 0.36751 
0.46667 0.40164 0.38661 0.37072 
0.47059 0.40494 0.39024 0.37393 
0.47451 0.40829 0.39383 0.37713 
0.47843 0.41170 0.39735 0.38032 
0.48235 0.41518 0.40081 0.38350 
0.48627 0.41870 0.40424 0.38664 
0.49020 0.42226 0.40768 0.38976 
0.49412 0.42586 0.41114 0.39286 
0.49804 0.42951 0.41461 0.39595 
0.50196 0.43319 0.41809 0.39902 
0.50588 0.43691 0.42157 0.40205 
0.50980 0.44064 0.42503 0.40505 
0.51373 0.44439 0.42847 0.40800 
0.51765 0.44813 0.43190 0.41091 
0.52157 0.45186 0.43532 0.41378 
0.52549 0.45557 0.43873 0.41661 
0.52941 0.45924 0.44213 0.41943 
0.53333 0.46287 0.44552 0.42224 
0.53725 0.46646 0.44889 0.42504 
0.54118 0.47003 0.45226 0.42783 
0.54510 0.47358 0.45561 0.43063 
0.54902 0.47711 0.45896 0.43344 
0.55294 0.48063 0.46229 0.43626 
0.55686 0.48414 0.46561 0.43908 
0.56078 0.48765 0.46894 0.44189 
0.56471 0.49118 0.47226 0.44471 
0.56863 0.49472 0.47558 0.44756 
0.57255 0.49826 0.47890 0.45042 
0.57647 0.50180 0.48223 0.45329 
0.58039 0.50530 0.48556 0.45616 
0.58431 0.50879 0.48889 0.45903 
0.58824 0.51227 0.49223 0.46190 
0.59216 0.51573 0.49557 0.46478 
0.59608 0.51917 0.49889 0.46768 
0.60000 0.52260 0.50218 0.47059 
0.60392 0.52600 0.50545 0.47352 
0.60784 0.52936 0.50869 0.47645 
0.61176 0.53269 0.51192 0.47940 
0.61569 0.53598 0.51514 0.48236 
0.61961 0.53923 0.51833 0.48533 
0.62353 0.54247 0.52151 0.48831 
0.62745 0.54571 0.52468 0.49130 
0.63137 0.54893 0.52783 0.49430 
0.63529 0.55214 0.53096 0.49728 
0.63922 0.55534 0.53406 0.50022 
0.64314 0.55851 0.53715 0.50314 
0.64706 0.56166 0.54024 0.50603 
0.65098 0.56480 0.54333 0.50891 
0.65490 0.56796 0.54642 0.51177 
0.65882 0.57112 0.54951 0.51461 
0.66275 0.57429 0.55261 0.51742 
0.66667 0.57745 0.55571 0.52022 
0.67059 0.58061 0.55880 0.52300 
0.67451 0.58376 0.56191 0.52576 
0.67843 0.58691 0.56504 0.52850 
0.68235 0.59006 0.56818 0.53124 
0.68627 0.59320 0.57134 0.53395 
0.69020 0.59635 0.57449 0.53670 
0.69412 0.59949 0.57765 0.53947 
0.69804 0.60263 0.58081 0.54226 
0.70196 0.60576 0.58398 0.54506 
0.70588 0.60888 0.58715 0.54789 
0.70980 0.61200 0.59033 0.55076 
0.71373 0.61513 0.59350 0.55367 
0.71765 0.61824 0.59669 0.55661 
0.72157 0.62136 0.59988 0.55956 
0.72549 0.62449 0.60307 0.56251 
0.72941 0.62763 0.60627 0.56546 
0.73333 0.63077 0.60947 0.56841 
0.73725 0.63389 0.61267 0.57135 
0.74118 0.63701 0.61585 0.57431 
0.74510 0.64011 0.61903 0.57728 
0.74902 0.64320 0.62220 0.58024 
0.75294 0.64629 0.62538 0.58321 
0.75686 0.64940 0.62854 0.58619 
0.76078 0.65250 0.63168 0.58918 
0.76471 0.65558 0.63481 0.59217 
0.76863 0.65865 0.63791 0.59517 
0.77255 0.66169 0.64098 0.59817 
0.77647 0.66472 0.64402 0.60119 
0.78039 0.66772 0.64705 0.60422 
0.78431 0.67071 0.65007 0.60727 
0.78824 0.67371 0.65308 0.61033 
0.79216 0.67673 0.65606 0.61341 
0.79608 0.67976 0.65902 0.61652 
0.80000 0.68280 0.66198 0.61966 
0.80392 0.68586 0.66491 0.62283 
0.80784 0.68897 0.66784 0.62603 
0.81176 0.69215 0.67077 0.62923 
0.81569 0.69539 0.67372 0.63245 
0.81961 0.69869 0.67670 0.63568 
0.82353 0.70204 0.67971 0.63892 
0.82745 0.70541 0.68273 0.64215 
0.83137 0.70881 0.68580 0.64536 
0.83529 0.71225 0.68895 0.64853 
0.83922 0.71573 0.69218 0.65168 
0.84314 0.71925 0.69547 0.65481 
0.84706 0.72280 0.69880 0.65791 
0.85098 0.72637 0.70218 0.66098 
0.85490 0.72998 0.70560 0.66403 
0.85882 0.73361 0.70906 0.66706 
0.86275 0.73727 0.71256 0.67009 
0.86667 0.74095 0.71611 0.67316 
0.87059 0.74465 0.71971 0.67628 
0.87451 0.74837 0.72338 0.67947 
0.87843 0.75212 0.72711 0.68281 
0.88235 0.75588 0.73091 0.68627 
0.88627 0.75964 0.73478 0.68986 
0.89020 0.76345 0.73874 0.69356 
0.89412 0.76733 0.74277 0.69737 
0.89804 0.77124 0.74687 0.70126 
0.90196 0.77518 0.75103 0.70526 
0.90588 0.77916 0.75525 0.70935 
0.90980 0.78318 0.75959 0.71350 
0.91373 0.78726 0.76405 0.71773 
0.91765 0.79141 0.76863 0.72206 
0.92157 0.79563 0.77334 0.72652 
0.92549 0.79992 0.77820 0.73111 
0.92941 0.80436 0.78327 0.73591 
0.93333 0.80915 0.78862 0.74097 
0.93725 0.81436 0.79432 0.74646 
0.94118 0.82008 0.80053 0.75258 
0.94510 0.82642 0.80753 0.75967 
0.94902 0.83360 0.81560 0.76810 
0.95294 0.84183 0.82493 0.77854 
0.95686 0.85124 0.83562 0.79134 
0.96078 0.86171 0.84750 0.80619 
0.96471 0.87307 0.86016 0.82248 
0.96863 0.88500 0.87326 0.83967 
0.97255 0.89735 0.88684 0.85758 
0.97647 0.91019 0.90100 0.87603 
0.98039 0.92347 0.91569 0.89443 
0.98431 0.93708 0.93068 0.91291 
0.98824 0.95147 0.94648 0.93276 
0.99216 0.96666 0.96331 0.95405 
0.99608 0.98276 0.98116 0.97625 
1.0000 1.0000 1.0000 1.00000 
END_DATA
CAL    

DESCRIPTOR "Argyll Calibration options and model"
ORIGINATOR "Argyll dispcal"
CREATED "Sat Nov 24 13:04:45 201"

KEYWORD "R_P"
KEYWORD "G_P"
KEYWORD "B_P"
NUMBER_OF_FIELDS 3
BEGIN_DATA_FORMAT
R_P G_P B_P 
END_DATA_FORMAT

NUMBER_OF_SETS 32
BEGIN_DATA
-4.6385e-04 9.7688e-05 1.4807e-03 
1.0005 0.99990 0.99852 
0.73345 0.62749 0.42713 
1.4149 1.3905 1.4949 
3.3716e-03 0.064113 0.12746 
0.16018 0.15996 0.20637 
0.061090 0.048445 0.11798 
0.085196 0.061599 0.076036 
0.067659 0.068946 0.11539 
0.065283 0.066111 0.046300 
0.056896 0.059071 0.080918 
0.053584 0.053205 0.057274 
0.047803 0.038983 0.055643 
0.045095 0.054966 0.046736 
0.040148 0.027079 0.045364 
0.038368 0.040000 0.044291 
0.037901 0.043887 0.043105 
0.036083 0.045403 0.039856 
0.029989 0.042032 0.035506 
0.029906 0.044534 0.038435 
0.028213 0.041159 0.034018 
0.027477 0.040898 0.032590 
0.025791 0.036347 0.030598 
0.025648 0.028389 0.028490 
0.022311 0.037802 0.028560 
0.021833 0.035278 0.028530 
0.021105 0.026046 0.028805 
0.020174 0.030015 0.023416 
0.016634 0.028945 0.024647 
0.016686 0.032895 0.024696 
0.016490 0.026725 0.023749 
0.015931 0.025793 0.021894 
END_DATA
