.local/lib/argyll/lenovo_thinkpad_x230.cal
CAL    

DESCRIPTOR "Argyll Device Calibration Curves"
ORIGINATOR "Argyll dispcal"
CREATED "Sat Jan 11 13:48:05 2014"
KEYWORD "DEVICE_CLASS"
DEVICE_CLASS "DISPLAY"
KEYWORD "COLOR_REP"
COLOR_REP "RGB"
KEYWORD "VIDEO_LUT_CALIBRATION_POSSIBLE"
VIDEO_LUT_CALIBRATION_POSSIBLE "YES"
KEYWORD "TV_OUTPUT_ENCODING"
TV_OUTPUT_ENCODING "NO"
KEYWORD "DEVICE_TYPE"
DEVICE_TYPE "l"
KEYWORD "NATIVE_TARGET_WHITE"
NATIVE_TARGET_WHITE ""
KEYWORD "TARGET_WHITE_XYZ"
TARGET_WHITE_XYZ "308.601969 329.516283 332.946742"
KEYWORD "TARGET_GAMMA"
TARGET_GAMMA "2.400000"
KEYWORD "DEGREE_OF_BLACK_OUTPUT_OFFSET"
DEGREE_OF_BLACK_OUTPUT_OFFSET "1.000000"
KEYWORD "BLACK_POINT_CORRECTION"
BLACK_POINT_CORRECTION "0.000000"
KEYWORD "BLACK_NEUTRAL_BLEND_RATE"
BLACK_NEUTRAL_BLEND_RATE "4.000000"
KEYWORD "QUALITY"
QUALITY "medium"

KEYWORD "RGB_I"
NUMBER_OF_FIELDS 4
BEGIN_DATA_FORMAT
RGB_I RGB_R RGB_G RGB_B 
END_DATA_FORMAT

NUMBER_OF_SETS 256
BEGIN_DATA
0.00000 9.32589e-03 4.72370e-03 2.88294e-03 
3.92157e-03 0.0125354 8.28740e-03 6.25109e-03 
7.84314e-03 0.0157757 0.0118721 9.65769e-03 
0.0117647 0.0190474 0.0154781 0.0131034 
0.0156863 0.0223508 0.0191055 0.0165889 
0.0196078 0.0256864 0.0227545 0.0201149 
0.0235294 0.0290547 0.0264252 0.0236820 
0.0274510 0.0324562 0.0301180 0.0272911 
0.0313725 0.0358913 0.0338330 0.0309428 
0.0352941 0.0393606 0.0375704 0.0346380 
0.0392157 0.0428646 0.0413306 0.0383776 
0.0431373 0.0464058 0.0451139 0.0421659 
0.0470588 0.0499863 0.0489187 0.0460042 
0.0509804 0.0536019 0.0527469 0.0498916 
0.0549020 0.0572504 0.0565989 0.0538320 
0.0588235 0.0609313 0.0604725 0.0578245 
0.0627451 0.0646450 0.0643662 0.0618645 
0.0666667 0.0683923 0.0682802 0.0659502 
0.0705882 0.0721749 0.0722150 0.0700831 
0.0745098 0.0759920 0.0761714 0.0742660 
0.0784314 0.0798406 0.0801462 0.0784943 
0.0823529 0.0837130 0.0841378 0.0827627 
0.0862745 0.0876034 0.0881456 0.0870689 
0.0901961 0.0915127 0.0921637 0.0914043 
0.0941176 0.0954407 0.0961871 0.0957615 
0.0980392 0.0993833 0.100214 0.100129 
0.101961 0.103341 0.104243 0.104503 
0.105882 0.107316 0.108276 0.108881 
0.109804 0.111308 0.112309 0.113269 
0.113725 0.115320 0.116345 0.117670 
0.117647 0.119353 0.120381 0.122078 
0.121569 0.123404 0.124413 0.126490 
0.125490 0.127467 0.128440 0.130902 
0.129412 0.131538 0.132465 0.135315 
0.133333 0.135614 0.136493 0.139729 
0.137255 0.139704 0.140525 0.144142 
0.141176 0.143807 0.144561 0.148549 
0.145098 0.147922 0.148600 0.152926 
0.149020 0.152047 0.152629 0.157264 
0.152941 0.156166 0.156644 0.161569 
0.156863 0.160271 0.160646 0.165842 
0.160784 0.164366 0.164636 0.170085 
0.164706 0.168456 0.168614 0.174310 
0.168627 0.172543 0.172581 0.178526 
0.172549 0.176632 0.176555 0.182736 
0.176471 0.180747 0.180542 0.186945 
0.180392 0.184896 0.184541 0.191160 
0.184314 0.189082 0.188553 0.195380 
0.188235 0.193307 0.192578 0.199604 
0.192157 0.197569 0.196614 0.203834 
0.196078 0.201867 0.200662 0.208069 
0.200000 0.206198 0.204721 0.212304 
0.203922 0.210557 0.208785 0.216536 
0.207843 0.214917 0.212851 0.220767 
0.211765 0.219272 0.216919 0.224992 
0.215686 0.223619 0.220991 0.229223 
0.219608 0.227946 0.225062 0.233467 
0.223529 0.232252 0.229136 0.237721 
0.227451 0.236542 0.233218 0.241983 
0.231373 0.240817 0.237309 0.246258 
0.235294 0.245078 0.241407 0.250548 
0.239216 0.249325 0.245511 0.254850 
0.243137 0.253562 0.249622 0.259158 
0.247059 0.257791 0.253739 0.263473 
0.250980 0.262004 0.257856 0.267794 
0.254902 0.266201 0.261974 0.272114 
0.258824 0.270383 0.266094 0.276428 
0.262745 0.274550 0.270211 0.280722 
0.266667 0.278702 0.274323 0.284987 
0.270588 0.282835 0.278427 0.289221 
0.274510 0.286949 0.282520 0.293449 
0.278431 0.291041 0.286601 0.297681 
0.282353 0.295119 0.290672 0.301917 
0.286275 0.299215 0.294755 0.306155 
0.290196 0.303334 0.298859 0.310393 
0.294118 0.307476 0.302987 0.314637 
0.298039 0.311643 0.307137 0.318895 
0.301961 0.315834 0.311310 0.323172 
0.305882 0.320055 0.315507 0.327476 
0.309804 0.324308 0.319732 0.331810 
0.313725 0.328593 0.323986 0.336171 
0.317647 0.332916 0.328273 0.340553 
0.321569 0.337277 0.332593 0.344958 
0.325490 0.341667 0.336943 0.349385 
0.329412 0.346060 0.341297 0.353829 
0.333333 0.350452 0.345651 0.358286 
0.337255 0.354843 0.350005 0.362751 
0.341176 0.359228 0.354356 0.367218 
0.345098 0.363608 0.358701 0.371692 
0.349020 0.367973 0.363039 0.376170 
0.352941 0.372312 0.367364 0.380652 
0.356863 0.376627 0.371676 0.385137 
0.360784 0.380920 0.375972 0.389627 
0.364706 0.385195 0.380255 0.394114 
0.368627 0.389462 0.384533 0.398598 
0.372549 0.393723 0.388809 0.403085 
0.376471 0.397978 0.393082 0.407594 
0.380392 0.402228 0.397352 0.412131 
0.384314 0.406472 0.401619 0.416701 
0.388235 0.410733 0.405889 0.421298 
0.392157 0.415022 0.410179 0.425912 
0.396078 0.419336 0.414491 0.430543 
0.400000 0.423675 0.418826 0.435169 
0.403922 0.428031 0.423180 0.439774 
0.407843 0.432400 0.427545 0.444358 
0.411765 0.436773 0.431924 0.448921 
0.415686 0.441133 0.436299 0.453478 
0.419608 0.445482 0.440667 0.458030 
0.423529 0.449815 0.445026 0.462561 
0.427451 0.454135 0.449376 0.467074 
0.431373 0.458448 0.453724 0.471578 
0.435294 0.462755 0.458070 0.476077 
0.439216 0.467057 0.462411 0.480567 
0.443137 0.471357 0.466749 0.485047 
0.447059 0.475656 0.471087 0.489518 
0.450980 0.479952 0.475425 0.493980 
0.454902 0.484245 0.479764 0.498433 
0.458824 0.488534 0.484101 0.502876 
0.462745 0.492821 0.488438 0.507303 
0.466667 0.497102 0.492773 0.511708 
0.470588 0.501379 0.497106 0.516084 
0.474510 0.505649 0.501438 0.520434 
0.478431 0.509906 0.505758 0.524756 
0.482353 0.514151 0.510064 0.529051 
0.486275 0.518379 0.514351 0.533321 
0.490196 0.522592 0.518620 0.537568 
0.494118 0.526790 0.522870 0.541789 
0.498039 0.530974 0.527102 0.545981 
0.501961 0.535142 0.531316 0.550146 
0.505882 0.539297 0.535514 0.554288 
0.509804 0.543437 0.539695 0.558403 
0.513725 0.547563 0.543856 0.562487 
0.517647 0.551673 0.547998 0.566539 
0.521569 0.555767 0.552122 0.570563 
0.525490 0.559842 0.556225 0.574564 
0.529412 0.563893 0.560307 0.578566 
0.533333 0.567917 0.564363 0.582573 
0.537255 0.571913 0.568393 0.586579 
0.541176 0.575883 0.572398 0.590575 
0.545098 0.579849 0.576385 0.594562 
0.549020 0.583830 0.580377 0.598540 
0.552941 0.587826 0.584376 0.602506 
0.556863 0.591830 0.588375 0.606460 
0.560784 0.595842 0.592368 0.610402 
0.564706 0.599863 0.596356 0.614334 
0.568627 0.603887 0.600340 0.618254 
0.572549 0.607895 0.604310 0.622169 
0.576471 0.611880 0.608266 0.626077 
0.580392 0.615845 0.612208 0.629979 
0.584314 0.619791 0.616137 0.633875 
0.588235 0.623725 0.620051 0.637769 
0.592157 0.627644 0.623953 0.641656 
0.596078 0.631551 0.627843 0.645531 
0.600000 0.635451 0.631726 0.649389 
0.603922 0.639344 0.635604 0.653230 
0.607843 0.643231 0.639479 0.657052 
0.611765 0.647116 0.643350 0.660857 
0.615686 0.650991 0.647216 0.664644 
0.619608 0.654855 0.651072 0.668413 
0.623529 0.658706 0.654918 0.672176 
0.627451 0.662544 0.658755 0.675948 
0.631373 0.666370 0.662582 0.679727 
0.635294 0.670179 0.666400 0.683515 
0.639216 0.673976 0.670201 0.687313 
0.643137 0.677776 0.673991 0.691118 
0.647059 0.681583 0.677780 0.694928 
0.650980 0.685397 0.681570 0.698739 
0.654902 0.689215 0.685361 0.702549 
0.658824 0.693037 0.689151 0.706355 
0.662745 0.696859 0.692940 0.710156 
0.666667 0.700680 0.696727 0.713951 
0.670588 0.704501 0.700509 0.717731 
0.674510 0.708322 0.704286 0.721482 
0.678431 0.712141 0.708055 0.725202 
0.682353 0.715957 0.711815 0.728893 
0.686275 0.719758 0.715565 0.732560 
0.690196 0.723536 0.719296 0.736204 
0.694118 0.727294 0.723004 0.739827 
0.698039 0.731035 0.726689 0.743433 
0.701961 0.734759 0.730351 0.747024 
0.705882 0.738465 0.733991 0.750598 
0.709804 0.742148 0.737609 0.754151 
0.713725 0.745809 0.741205 0.757677 
0.717647 0.749449 0.744784 0.761182 
0.721569 0.753067 0.748346 0.764662 
0.725490 0.756656 0.751890 0.768116 
0.729412 0.760215 0.755407 0.771546 
0.733333 0.763747 0.758895 0.774958 
0.737255 0.767250 0.762363 0.778355 
0.741176 0.770726 0.765809 0.781734 
0.745098 0.774177 0.769237 0.785094 
0.749020 0.777609 0.772647 0.788432 
0.752941 0.781020 0.776042 0.791746 
0.756863 0.784406 0.779422 0.795031 
0.760784 0.787766 0.782785 0.798290 
0.764706 0.791097 0.786129 0.801522 
0.768627 0.794394 0.789453 0.804732 
0.772549 0.797659 0.792754 0.807929 
0.776471 0.800891 0.796031 0.811114 
0.780392 0.804093 0.799284 0.814288 
0.784314 0.807268 0.802515 0.817450 
0.788235 0.810427 0.805726 0.820600 
0.792157 0.813573 0.808927 0.823732 
0.796078 0.816705 0.812119 0.826846 
0.800000 0.819821 0.815303 0.829943 
0.803922 0.822923 0.818477 0.833021 
0.807843 0.826011 0.821643 0.836084 
0.811765 0.829085 0.824798 0.839138 
0.815686 0.832143 0.827942 0.842186 
0.819608 0.835185 0.831077 0.845227 
0.823529 0.838217 0.834200 0.848263 
0.827451 0.841248 0.837318 0.851292 
0.831373 0.844281 0.840439 0.854312 
0.835294 0.847313 0.843566 0.857323 
0.839216 0.850345 0.846701 0.860331 
0.843137 0.853377 0.849841 0.863350 
0.847059 0.856409 0.852989 0.866381 
0.850980 0.859440 0.856141 0.869427 
0.854902 0.862488 0.859299 0.872488 
0.858824 0.865563 0.862480 0.875564 
0.862745 0.868665 0.865687 0.878656 
0.866667 0.871793 0.868920 0.881764 
0.870588 0.874948 0.872182 0.884888 
0.874510 0.878132 0.875472 0.888031 
0.878431 0.881349 0.878794 0.891192 
0.882353 0.884601 0.882152 0.894378 
0.886275 0.887892 0.885547 0.897592 
0.890196 0.891220 0.888979 0.900829 
0.894118 0.894589 0.892451 0.904089 
0.898039 0.898003 0.895966 0.907369 
0.901961 0.901460 0.899524 0.910672 
0.905882 0.904960 0.903123 0.914002 
0.909804 0.908504 0.906761 0.917359 
0.913725 0.912092 0.910439 0.920740 
0.917647 0.915724 0.914158 0.924138 
0.921569 0.919399 0.917917 0.927560 
0.925490 0.923110 0.921711 0.931004 
0.929412 0.926859 0.925539 0.934469 
0.933333 0.930646 0.929403 0.937953 
0.937255 0.934466 0.933299 0.941455 
0.941176 0.938316 0.937225 0.944975 
0.945098 0.942196 0.941181 0.948512 
0.949020 0.946104 0.945165 0.952066 
0.952941 0.950041 0.949177 0.955638 
0.956863 0.954008 0.953221 0.959228 
0.960784 0.958007 0.957296 0.962837 
0.964706 0.962039 0.961404 0.966464 
0.968627 0.966107 0.965547 0.970111 
0.972549 0.970210 0.969725 0.973777 
0.976471 0.974351 0.973939 0.977463 
0.980392 0.978529 0.978189 0.981169 
0.984314 0.982745 0.982475 0.984895 
0.988235 0.986999 0.986800 0.988640 
0.992157 0.991293 0.991161 0.992406 
0.996078 0.995626 0.995561 0.996193 
1.00000 1.00000 1.00000 1.00000 
END_DATA
CAL    

DESCRIPTOR "Argyll Calibration options and model"
ORIGINATOR "Argyll dispcal"
CREATED "Sat Jan 11 13:48:05 201"

KEYWORD "R_P"
KEYWORD "G_P"
KEYWORD "B_P"
NUMBER_OF_FIELDS 3
BEGIN_DATA_FORMAT
R_P G_P B_P 
END_DATA_FORMAT

NUMBER_OF_SETS 32
BEGIN_DATA
-1.23060e-04 2.54398e-04 1.10106e-03 
1.00012 0.999746 0.998899 
2.03289 2.06817 2.37017 
0.436646 0.502648 0.437574 
0.152718 0.125548 0.132362 
0.140236 0.122955 0.108541 
0.122157 0.0998474 0.0901096 
0.0573961 0.0887429 0.0881564 
0.0984145 0.0819590 0.0565157 
0.0507571 0.0758059 0.0817579 
0.0748934 0.0681480 0.0898357 
0.0570026 0.0476317 0.0542293 
0.0709791 0.0619615 0.0476420 
0.0529811 0.0576041 0.0487495 
0.0584301 0.0539689 0.0577993 
0.0556747 0.0506109 0.0515209 
0.0332147 0.0411447 0.0496010 
0.0449231 0.0460884 0.0469572 
0.0583709 0.0457053 0.0379198 
0.0277955 0.0386634 0.0440682 
0.0297971 0.0349977 0.0362228 
0.0354607 0.0402344 0.0390351 
0.0273113 0.0369443 0.0370222 
0.0208104 0.0369276 0.0335644 
0.0261793 0.0344329 0.0315851 
0.0205557 0.0340945 0.0317497 
0.0198168 0.0340181 0.0303260 
0.0188885 0.0334127 0.0293904 
0.0142844 0.0306245 0.0280283 
8.87389e-03 0.0284991 0.0268238 
0.0123540 0.0281385 0.0256670 
0.0151455 0.0257748 0.0227703 
END_DATA
